@extra/icons/0nyX/symbolic/cs-xlet-error.svg

<?xml version="1.0" encoding="UTF-8" standalone="no"?>
<svg xmlns="http://www.w3.org/2000/svg" version="1.1" viewBox="0 0 16 16">
 <path style="text-decoration-line:none;text-transform:none;text-indent:0" d="m3.469 1a2.468 2.468 0 0 0 -2.471 2.469v9.062a2.468 2.468 0 0 0 2.473 2.469h5.29a4.5 4.5 0 0 1 -0.497 -1h-4.794a1.443 1.443 0 0 1 -1.47 -1.469v-9.06c0-0.833 0.637-1.471 1.469-1.471h9.061c0.687 0 1.234 0.438 1.407 1.057l-5.437 5.318-1.937-1.938-2.125 2.126 3 3 0.582 0.583a4.5 4.5 0 0 1 4.48 -4.146 4.5 4.5 0 0 1 0.5 0.031l1-1.027v1.26a4.5 4.5 0 0 1 1 0.496v-5.29a2.468 2.468 0 0 0 -2.47 -2.47h-9.062z" fill="#f1f2f2"/>
 <circle cx="11.5" cy="11.5" r="4.5" fill="#333"/>
 <path style="color:#f1f2f2" d="m11.5 8a3.5 3.5 0 1 0 0 7 3.5 3.5 0 0 0 0 -7zm-2.5 2.969h5v1.031h-5z" class="error" overflow="visible" fill="#c00"/>
</svg>

<svg xmlns="http://www.w3.org/2000/svg" viewBox="0 0 16 16">
    <path style="text-decoration-line:none;text-transform:none;text-indent:0" fill="#f1f2f2" d="M3.469 1A2.468 2.468 0 0 0 .998 3.469v9.062A2.468 2.468 0 0 0 3.471 15h5.29a4.5 4.5 0 0 1-.497-1H3.47A1.443 1.443 0 0 1 2 12.531v-9.06C2 2.638 2.637 2 3.469 2h9.061c.687 0 1.234.438 1.407 1.057L8.5 8.375 6.563 6.437 4.438 8.563l3 3 .582.583A4.5 4.5 0 0 1 12.5 8a4.5 4.5 0 0 1 .5.031l1-1.027v1.26a4.5 4.5 0 0 1 1 .496V3.47A2.468 2.468 0 0 0 12.53 1H3.468z" color="#000"/>
    <path d="M12.5 9a3.5 3.5 0 1 0 0 7 3.5 3.5 0 0 0 0-7zM10 11.969h5V13h-5z" class="error" overflow="visible" fill="#c00" color="#f1f2f2"/>
</svg>
